X:235
T:The Sailor's Grace (b)
M:6/8
L:1/8
Q:1/4=3D120
K:G
D|\
G2G GFE|D2C B,2D|G2G GFE|F2G A2D|
G2G GFE|D2C B,2D|A2A ABA|GFE D2D|
c2c c2c|B2B B2B |A2B A2G|F2E D2D|
G3  z2B|d2c A2F |G3  z2||
